src/shared/assets/FooterLogo.svg

<svg width="129" height="33" viewBox="0 0 129 33" fill="none" xmlns="http://www.w3.org/2000/svg">
<path d="M27.9195 19.4689L24.811 12.8167C24.1519 11.4067 23.1832 10.2384 22.0214 9.35752C20.3905 8.11271 18.3795 7.43066 16.3225 7.43066C16.0987 7.43066 15.8749 7.43984 15.6512 7.45513C14.5506 7.53465 13.444 7.81298 12.3833 8.3054C10.1209 9.35752 8.40422 11.2263 7.54894 13.5691C6.69672 15.9119 6.80708 18.4443 7.86162 20.7015L8.35824 21.7628C9.67029 22.0228 11.0007 21.7077 12.043 20.9615L11.1969 19.1508C10.5562 17.7806 10.4888 16.2453 11.0069 14.8231C11.5249 13.4039 12.5672 12.2692 13.9375 11.63C14.753 11.2507 15.6144 11.0825 16.4574 11.1039C18.4377 11.1498 20.3261 12.2325 21.3193 14.0584C21.3745 14.1594 21.4266 14.2634 21.4757 14.3673L24.5841 21.0196C25.2248 22.3898 25.2923 23.9282 24.7742 25.3474C24.2561 26.7665 23.2138 27.9012 21.8405 28.5404C19.0692 29.8311 15.7738 28.6842 14.3943 25.9835C13.3275 26.6013 12.1503 27.0265 10.9088 27.2253L10.9701 27.3537C12.555 30.7456 15.9363 32.7398 19.4586 32.7398C20.7798 32.7398 22.1225 32.4584 23.3947 31.8681C25.6601 30.8129 27.3768 28.9442 28.2321 26.6013C29.0844 24.2616 28.974 21.7292 27.9195 19.4689Z" fill="#FF8400"/>
<path fill-rule="evenodd" clip-rule="evenodd" d="M6.54504 8.14767C6.545 8.14777 6.54496 8.14788 6.54493 8.14798L4.02625 15.0563C2.95417 17.9952 4.47305 21.2483 7.41805 22.3196C10.361 23.3901 13.6184 21.8735 14.6913 18.9328C14.6914 18.9327 14.6914 18.9326 14.6914 18.9325L17.21 12.0245L17.2101 12.0242C18.2822 9.08526 16.7633 5.83221 13.8183 4.7609C10.8754 3.69034 7.61795 5.20697 6.54504 8.14767ZM3.08591 6.88968C4.8539 2.04304 10.223 -0.459565 15.0784 1.30669C19.9316 3.07218 22.4377 8.43365 20.6692 13.2822C20.6692 13.2823 20.6692 13.2824 20.6691 13.2825L18.1506 20.1905L18.1504 20.1908C16.3825 25.0374 11.0134 27.54 6.158 25.7738C1.30472 24.0083 -1.20136 18.6468 0.56713 13.7983C0.567167 13.7982 0.567204 13.7981 0.567241 13.798L3.08591 6.88968Z" fill="#FFA94C"/>
<path fill-rule="evenodd" clip-rule="evenodd" d="M53.8625 6.69336C54.9018 6.69336 55.7442 7.53581 55.7442 8.57504C55.7442 9.61426 54.9018 10.4567 53.8625 10.4567C52.8233 10.4567 51.9808 9.61426 51.9808 8.57504C51.9808 7.53581 52.8233 6.69336 53.8625 6.69336ZM40.0523 9.59687C40.0523 8.69873 39.3242 7.97064 38.426 7.97064C37.5279 7.97064 36.7998 8.69873 36.7998 9.59687V23.3935V24.3652C36.7998 25.6249 37.821 26.646 39.0806 26.646H40.0523H48.6076C49.5058 26.646 50.2338 25.9179 50.2338 25.0198C50.2338 24.1217 49.5058 23.3935 48.6076 23.3935H40.0523V9.59687ZM94.7418 19.2504C94.7418 15.1028 98.1163 11.7283 102.264 11.7283C106.412 11.7283 109.786 15.1028 109.786 19.2504C109.786 19.8177 109.297 20.2392 108.73 20.2392H98.0467C98.496 22.1528 100.216 23.5817 102.264 23.5817C103.286 23.5817 104.226 23.2253 104.968 22.6305C105.524 22.1848 106.242 21.9058 106.925 22.1087C107.967 22.4186 108.431 23.6319 107.656 24.3946C106.239 25.7907 104.282 26.7726 102.264 26.7726C98.1163 26.7726 94.7418 23.3981 94.7418 19.2504ZM102.263 14.9192C100.47 14.9192 98.9283 16.014 98.2714 17.5706H106.254C105.597 16.014 104.056 14.9192 102.263 14.9192ZM125.806 13.2196C125.978 12.5468 126.584 12.0761 127.279 12.0761C128.271 12.0761 128.998 13.0116 128.752 13.9731L125.897 25.1302C125.648 26.1053 124.769 26.7874 123.763 26.7874H123.704C122.697 26.7874 121.818 26.1053 121.569 25.1302L119.799 18.2104L118.057 25.0196C117.791 26.0598 116.854 26.7874 115.78 26.7874H115.721C114.781 26.7874 113.961 26.1508 113.728 25.2407L110.846 13.9731C110.6 13.0116 111.326 12.0761 112.319 12.0761C113.013 12.0761 113.62 12.5468 113.792 13.2196L115.864 21.3214L117.841 13.5964C118.069 12.7018 118.876 12.0761 119.799 12.0761C120.722 12.0761 121.528 12.7018 121.757 13.5964L123.733 21.3214L125.806 13.2196ZM81.4211 12.4035C81.7226 12.12 82.121 11.9621 82.5348 11.9621C84.0073 11.9621 84.7212 13.763 83.6488 14.7719L79.1569 18.9973L83.5163 24.0917C84.3922 25.1152 83.668 26.695 82.3208 26.6995C81.8576 26.701 81.4169 26.4992 81.1155 26.1474L76.8499 21.1686L76.4314 21.562V25.0471C76.4314 25.9453 75.7033 26.6734 74.8051 26.6734C73.9069 26.6734 73.1789 25.9453 73.1789 25.0471V9.59687C73.1789 8.69873 73.9069 7.97064 74.8051 7.97064C75.7033 7.97064 76.4314 8.69873 76.4314 9.59687V17.0962L81.4211 12.4035ZM55.4887 25.0471V13.5883C55.4887 12.6902 54.7607 11.9621 53.8625 11.9621C52.9644 11.9621 52.2363 12.6902 52.2363 13.5883V25.0471C52.2363 25.9453 52.9644 26.6734 53.8625 26.6734C54.7607 26.6734 55.4887 25.9453 55.4887 25.0471ZM65.481 11.9621C63.6108 11.9621 61.9537 12.8721 60.9262 14.2737V13.5883C60.9262 12.6902 60.1982 11.9621 59.3 11.9621C58.4018 11.9621 57.6738 12.6902 57.6738 13.5883V25.022C57.6738 25.934 58.4131 26.6734 59.3251 26.6734C60.2371 26.6734 60.9764 25.934 60.9764 25.022V18.5764C60.9764 16.6868 62.508 15.1552 64.3976 15.1552C66.2873 15.1552 67.8189 16.6868 67.8189 18.5764V25.0198C67.8189 25.933 68.5592 26.6734 69.4725 26.6734C70.3857 26.6734 71.1261 25.933 71.1261 25.0198V17.6071C71.1261 14.4892 68.5989 11.9621 65.481 11.9621ZM93.2714 11.8817C93.7899 11.9749 94.236 12.2948 94.4629 12.7708H94.4625C94.5624 12.9805 94.6184 13.2149 94.6184 13.4622C94.6184 13.7095 94.5624 13.944 94.4625 14.1537C94.2073 14.6904 93.6639 15.0652 93.0304 15.0821C93.0157 15.0828 93.001 15.0828 92.9859 15.0828C92.8835 15.0828 92.7834 15.0735 92.686 15.0553C91.9488 15.0291 91.2017 15.2042 90.6034 15.631C89.8168 16.1922 89.3405 17.112 89.3405 18.0735V25.0701C89.3405 26.006 88.5819 26.7646 87.6461 26.7646C86.7101 26.7646 85.9515 26.006 85.9515 25.0701V13.4888C85.9515 12.57 86.6963 11.8252 87.6151 11.8252C88.5339 11.8252 89.2787 12.57 89.2787 13.4888V13.9806C89.8778 13.1607 90.7081 12.5101 91.6623 12.1465C92.1679 11.9537 92.7259 11.7838 93.2714 11.8817Z" fill="#2D2D2D"/>
</svg>

<svg xmlns="http://www.w3.org/2000/svg" width="129" height="33" fill="none"><path fill="#FF8400" d="m27.92 19.469-3.109-6.652a9.232 9.232 0 0 0-2.79-3.46 9.415 9.415 0 0 0-6.37-1.902c-1.1.08-2.207.358-3.268.85A9.275 9.275 0 0 0 7.55 13.57a9.26 9.26 0 0 0 .313 7.132l.496 1.062a4.75 4.75 0 0 0 3.685-.802l-.846-1.81a5.61 5.61 0 0 1-.19-4.328 5.636 5.636 0 0 1 2.93-3.193 5.686 5.686 0 0 1 7.538 2.737l3.11 6.653a5.61 5.61 0 0 1 .19 4.327 5.632 5.632 0 0 1-2.934 3.193 5.68 5.68 0 0 1-7.447-2.556 10.152 10.152 0 0 1-3.485 1.241l.061.129c1.585 3.392 4.966 5.386 8.489 5.386a9.338 9.338 0 0 0 3.936-.872 9.285 9.285 0 0 0 4.837-5.267 9.26 9.26 0 0 0-.313-7.132Z"/><path fill="#FFA94C" fill-rule="evenodd" d="m6.545 8.148-2.519 6.908a5.666 5.666 0 0 0 3.392 7.264 5.678 5.678 0 0 0 7.273-3.387l2.519-6.909a5.666 5.666 0 0 0-3.392-7.263 5.678 5.678 0 0 0-7.273 3.387ZM3.085 6.89c1.769-4.847 7.138-7.35 11.993-5.583 4.854 1.765 7.36 7.127 5.591 11.975l-2.518 6.909c-1.768 4.846-7.138 7.349-11.993 5.583-4.853-1.766-7.36-7.127-5.59-11.976L3.085 6.89Z" clip-rule="evenodd"/><path fill="#2D2D2D" fill-rule="evenodd" d="M53.862 6.693a1.882 1.882 0 1 1 0 3.764 1.882 1.882 0 0 1 0-3.764Zm-13.81 2.904a1.626 1.626 0 0 0-3.252 0V24.365a2.28 2.28 0 0 0 2.28 2.281H48.609a1.626 1.626 0 1 0 0-3.253h-8.556V9.598Zm54.69 9.653c0-4.147 3.374-7.522 7.522-7.522s7.522 3.375 7.522 7.522c0 .568-.489.99-1.056.99H98.047a4.34 4.34 0 0 0 4.217 3.342 4.31 4.31 0 0 0 2.704-.951c.556-.446 1.274-.725 1.957-.522 1.042.31 1.506 1.523.731 2.286-1.417 1.396-3.374 2.378-5.392 2.378-4.148 0-7.522-3.375-7.522-7.523Zm7.521-4.33a4.336 4.336 0 0 0-3.992 2.65h7.983a4.335 4.335 0 0 0-3.991-2.65Zm23.543-1.7a1.52 1.52 0 1 1 2.946.753l-2.855 11.157a2.203 2.203 0 0 1-2.134 1.657h-.059a2.203 2.203 0 0 1-2.135-1.657l-1.77-6.92-1.742 6.81a2.35 2.35 0 0 1-2.277 1.767h-.059c-.94 0-1.76-.636-1.993-1.546l-2.882-11.268a1.52 1.52 0 1 1 2.946-.753l2.072 8.101 1.977-7.725a2.02 2.02 0 0 1 3.916 0l1.976 7.725 2.073-8.101Zm-44.385-.817c.302-.283.7-.44 1.114-.44 1.472 0 2.186 1.8 1.114 2.809l-4.492 4.225 4.36 5.095c.875 1.023.151 2.603-1.196 2.608a1.58 1.58 0 0 1-1.206-.553L76.85 21.17l-.419.393v3.485a1.626 1.626 0 1 1-3.252 0V9.597a1.626 1.626 0 1 1 3.252 0v7.5l4.99-4.694ZM55.49 25.047V13.588a1.626 1.626 0 1 0-3.253 0v11.46a1.626 1.626 0 1 0 3.253 0Zm9.992-13.085c-1.87 0-3.527.91-4.555 2.312v-.686a1.626 1.626 0 1 0-3.252 0v11.434a1.651 1.651 0 1 0 3.302 0v-6.446a3.421 3.421 0 1 1 6.843 0v6.444a1.654 1.654 0 0 0 3.307 0v-7.413a5.645 5.645 0 0 0-5.645-5.645Zm27.79-.08c.519.093.965.413 1.192.889a1.603 1.603 0 0 1 0 1.383 1.633 1.633 0 0 1-1.777.901c-.737-.026-1.484.15-2.083.576a3.021 3.021 0 0 0-1.262 2.442v6.997a1.694 1.694 0 1 1-3.39 0V13.49a1.664 1.664 0 1 1 3.328 0v.492c.599-.82 1.43-1.47 2.383-1.835.506-.192 1.064-.362 1.61-.264Z" clip-rule="evenodd"/></svg>
